icons/evolvere-blue-folders-flat-vivid-dark-fallback/apps/64/gshutdown.svg

<?xml version="1.0" encoding="UTF-8" standalone="no"?>
<!-- Created with Inkscape (http://www.inkscape.org/) -->

<svg
   xmlns:dc="http://purl.org/dc/elements/1.1/"
   xmlns:cc="http://creativecommons.org/ns#"
   xmlns:rdf="http://www.w3.org/1999/02/22-rdf-syntax-ns#"
   xmlns:svg="http://www.w3.org/2000/svg"
   xmlns="http://www.w3.org/2000/svg"
   xmlns:sodipodi="http://sodipodi.sourceforge.net/DTD/sodipodi-0.dtd"
   xmlns:inkscape="http://www.inkscape.org/namespaces/inkscape"
   width="64"
   height="64"
   id="svg13094"
   version="1.1"
   inkscape:version="0.91+devel r"
   sodipodi:docname="gshutdown.svg">
  <sodipodi:namedview
     id="base"
     pagecolor="#ffffff"
     bordercolor="#666666"
     borderopacity="1.0"
     inkscape:pageopacity="0"
     inkscape:pageshadow="2"
     inkscape:zoom="11.313709"
     inkscape:cx="31.562977"
     inkscape:cy="29.413353"
     inkscape:document-units="px"
     inkscape:current-layer="svg13094"
     showgrid="true"
     inkscape:snap-bbox="true"
     inkscape:bbox-paths="true"
     inkscape:bbox-nodes="true"
     inkscape:snap-bbox-edge-midpoints="true"
     inkscape:snap-bbox-midpoints="true"
     inkscape:object-paths="true"
     inkscape:snap-intersection-paths="true"
     inkscape:object-nodes="true"
     inkscape:snap-smooth-nodes="true"
     inkscape:snap-midpoints="true"
     inkscape:snap-object-midpoints="true"
     inkscape:snap-center="true"
     showguides="false"
     inkscape:guide-bbox="true"
     inkscape:window-width="1920"
     inkscape:window-height="1025"
     inkscape:window-x="-2"
     inkscape:window-y="32"
     inkscape:window-maximized="1"
     inkscape:snap-global="true"
     fit-margin-top="0"
     fit-margin-left="0"
     fit-margin-right="0"
     fit-margin-bottom="0"
     showborder="true"
     inkscape:showpageshadow="false"
     inkscape:snap-page="true">
    <inkscape:grid
       type="xygrid"
       id="grid3075"
       empspacing="5"
       visible="true"
       enabled="true"
       snapvisiblegridlinesonly="true"
       originx="1.6362304e-08px"
       originy="18px" />
    <sodipodi:guide
       orientation="0,1"
       position="-11,30"
       id="guide9148" />
    <sodipodi:guide
       orientation="1,0"
       position="32,70"
       id="guide9150" />
  </sodipodi:namedview>
  <defs
     id="defs13096" />
  <metadata
     id="metadata13099">
    <rdf:RDF>
      <cc:Work
         rdf:about="">
        <dc:format>image/svg+xml</dc:format>
        <dc:type
           rdf:resource="http://purl.org/dc/dcmitype/StillImage" />
        <dc:title></dc:title>
      </cc:Work>
    </rdf:RDF>
  </metadata>
  <path
     id="path6538"
     d="m 0,4 0,30 0,28 2,2 30,0 30,0 2,-2 L 64,34 64,4 32,4 0,4 Z"
     style="color:#000000;display:inline;overflow:visible;visibility:visible;fill:#aeb4c3;fill-opacity:1;fill-rule:nonzero;stroke:none;stroke-width:2.28571415;marker:none;enable-background:accumulate"
     inkscape:connector-curvature="0" />
  <path
     inkscape:connector-curvature="0"
     style="color:#000000;display:inline;overflow:visible;visibility:visible;fill:#e7ecf0;fill-opacity:1;fill-rule:nonzero;stroke:none;marker:none;enable-background:accumulate"
     d="M 2,0 0,1 0,4 19.5625,4 39.125,4 64,4 64,1 62,0 39.125,0 19.5625,0 2,0 Z"
     id="path6688" />
  <g
     id="g3043"
     inkscape:export-filename="folder.png"
     inkscape:export-xdpi="90"
     inkscape:export-ydpi="90"
     transform="translate(-0.62500009,0.082283)" />
  <g
     id="scalable"
     transform="matrix(1.0385892,0,0,1.0385892,1214.7222,1878.8121)"
     inkscape:label="#g3701"
     style="fill:#ffffff" />
  <path
     style="opacity:1;fill:#f2f5f7;fill-opacity:1;fill-rule:nonzero;stroke-width:1;stroke-linecap:butt;stroke-linejoin:miter;stroke-miterlimit:4;stroke-dasharray:none;stroke-dashoffset:0;stroke-opacity:1"
     d="M 0,3 0,6 2,4 Z"
     id="path4298"
     inkscape:connector-curvature="0"
     sodipodi:nodetypes="cccc" />
  <path
     inkscape:connector-curvature="0"
     style="opacity:1;fill:#ccd1db;fill-opacity:1;stroke:none;stroke-width:1;stroke-linecap:butt;stroke-linejoin:miter;stroke-miterlimit:4;stroke-dasharray:none;stroke-dashoffset:0;stroke-opacity:1;marker:none"
     id="path3028"
     d="M 64,6 62,4 64,3 Z" />
  <g
     id="g4185">
    <path
       sodipodi:nodetypes="ccccccccc"
       inkscape:connector-curvature="0"
       id="path3796"
       d="m 46,12 0,45 -26,0 0,1 6,6 28,0 0,-20 8,-16 z"
       style="color:#000000;fill:#000000;fill-opacity:0.09391773;fill-rule:nonzero;stroke:none;stroke-width:1;marker:none;visibility:visible;display:inline;overflow:visible;enable-background:accumulate;opacity:1;stroke-linecap:butt;stroke-linejoin:miter;stroke-miterlimit:4;stroke-dasharray:none;stroke-dashoffset:0;stroke-opacity:1" />
    <rect
       style="color:#000000;fill:#11212f;fill-opacity:0.52951699;fill-rule:nonzero;stroke:none;stroke-width:2;marker:none;visibility:visible;display:inline;overflow:visible;enable-background:accumulate"
       id="rect3775"
       width="30"
       height="46"
       x="17"
       y="11" />
    <path
       sodipodi:nodetypes="ccccccc"
       inkscape:connector-curvature="0"
       id="path3858"
       d="m 18,12 28,0 0,45 -1,1 -26,0 -1,-1 z"
       style="color:#000000;fill:#a02c2c;fill-opacity:1;fill-rule:nonzero;stroke:none;stroke-width:2;marker:none;visibility:visible;display:inline;overflow:visible;enable-background:accumulate" />
    <path
       sodipodi:nodetypes="ccccc"
       inkscape:connector-curvature="0"
       id="path3860"
       d="m 18,12 1,6 0,40 -1,-1 z"
       style="color:#000000;fill:#eb5252;fill-opacity:1;fill-rule:nonzero;stroke:none;stroke-width:2;marker:none;visibility:visible;display:inline;overflow:visible;enable-background:accumulate" />
    <path
       sodipodi:nodetypes="cccccc"
       inkscape:connector-curvature="0"
       id="path3803"
       d="m 46,12 -1,6 0,19 0,21 1,-1 z"
       style="color:#000000;fill:#751a1a;fill-opacity:1;fill-rule:nonzero;stroke:none;stroke-width:2;marker:none;visibility:visible;display:inline;overflow:visible;enable-background:accumulate" />
    <rect
       y="18"
       x="19"
       height="19"
       width="26"
       id="rect3845"
       style="color:#000000;fill:#942121;fill-opacity:1;fill-rule:nonzero;stroke:none;stroke-width:2;marker:none;visibility:visible;display:inline;overflow:visible;enable-background:accumulate" />
    <rect
       style="color:#000000;fill:#c82828;fill-opacity:1;fill-rule:nonzero;stroke:none;stroke-width:2;marker:none;visibility:visible;display:inline;overflow:visible;enable-background:accumulate"
       id="rect3849"
       width="26"
       height="21"
       x="19"
       y="-58"
       transform="scale(1,-1)" />
    <path
       style="color:#000000;fill:#f94949;fill-opacity:1;fill-rule:nonzero;stroke:none;stroke-width:2;marker:none;visibility:visible;display:inline;overflow:visible;enable-background:accumulate"
       d="m 18,12 1,6 26,0 1,-6 z"
       id="path3853"
       inkscape:connector-curvature="0" />
    <rect
       y="43"
       x="31"
       height="9"
       width="2"
       id="rect3785"
       style="color:#000000;fill:#ffffff;fill-opacity:0.80590338;fill-rule:nonzero;stroke:none;stroke-width:2;marker:none;visibility:visible;display:inline;overflow:visible;enable-background:accumulate" />
    <path
       inkscape:connector-curvature="0"
       id="path3793"
       d="m 32,24 c -2.485281,0 -4.5,1.567004 -4.5,3.5 0,1.932996 2.014719,3.5 4.5,3.5 2.485281,0 4.5,-1.567004 4.5,-3.5 C 36.5,25.567004 34.485281,24 32,24 z m 0,1.555556 c 1.380712,0 2.5,0.870557 2.5,1.944444 0,1.073887 -1.119288,1.944444 -2.5,1.944444 -1.380712,0 -2.5,-0.870557 -2.5,-1.944444 0,-1.073887 1.119288,-1.944444 2.5,-1.944444 z"
       style="color:#000000;fill:#ffffff;fill-opacity:0.53309482;fill-rule:nonzero;stroke:none;stroke-width:2;marker:none;visibility:visible;display:inline;overflow:visible;enable-background:accumulate" />
  </g>
</svg>

<svg xmlns="http://www.w3.org/2000/svg" viewBox="0 0 64 64"><g color="#000"><path d="m0 4v30 28l2 2h30 30l2-2v-28-30h-32-32" fill="#aeb4c3"/><path d="m2 0l-2 1v3h19.563 19.563 24.875v-3l-2-1h-22.875-19.563-17.563" fill="#e7ecf0"/></g><path d="m0 3v3l2-2" fill="#f2f5f7"/><path d="m64 6l-2-2 2-1" fill="#ccd1db"/><g color="#000"><path d="m46 12v45h-26v1l6 6h28v-20l8-16z" fill-opacity=".094"/><path fill="#11212f" fill-opacity=".53" d="m17 11h30v46h-30z"/><path d="m18 12h28v45l-1 1h-26l-1-1z" fill="#a02c2c"/><path d="m18 12l1 6v40l-1-1z" fill="#eb5252"/><path d="m46 12l-1 6v19 21l1-1z" fill="#751a1a"/><path fill="#942121" d="m19 18h26v19h-26z"/><path transform="scale(1-1)" fill="#c82828" d="m19-58h26v21h-26z"/><path d="m18 12l1 6h26l1-6z" fill="#f94949"/><g fill="#fff"><path fill-opacity=".806" d="m31 43h2v9h-2z"/><path d="m32 24c-2.485 0-4.5 1.567-4.5 3.5 0 1.933 2.01 3.5 4.5 3.5 2.485 0 4.5-1.567 4.5-3.5 0-1.933-2.01-3.5-4.5-3.5m0 1.556c1.381 0 2.5.871 2.5 1.944 0 1.074-1.119 1.944-2.5 1.944-1.381 0-2.5-.871-2.5-1.944 0-1.074 1.119-1.944 2.5-1.944" fill-opacity=".533"/></g></g></svg>
